img/arrow-1.svg

<svg fill="none" height="16" viewBox="0 0 14 16" width="14" xmlns="http://www.w3.org/2000/svg"><path d="m6.40134 15.6543c.33063.3306.86669.3306 1.19732 0l5.38794-5.3879c.3306-.33061.3306-.86667 0-1.1973-.3307-.33062-.8667-.33062-1.1974 0l-4.7892 4.7893-4.78925-4.7893c-.33063-.33062-.86668-.33062-1.19731 0-.330628.33063-.330628.86669 0 1.1973zm1.44529-14.14467c0-.46758-.37905-.846631-.84663-.846631s-.84663.379051-.84663.846631zm0 13.54607v-13.54607h-1.69326v13.54607z" fill="#0080ff"/></svg>

<svg width="14" height="16" viewBox="0 0 14 16" fill="none" xmlns="http://www.w3.org/2000/svg">
<path d="M6.40134 15.6543C6.73197 15.9849 7.26803 15.9849 7.59866 15.6543L12.9866 10.2664C13.3172 9.93579 13.3172 9.39973 12.9866 9.0691C12.6559 8.73848 12.1199 8.73848 11.7892 9.0691L7 13.8584L2.21075 9.0691C1.88012 8.73848 1.34407 8.73848 1.01344 9.0691C0.682812 9.39973 0.682812 9.93579 1.01344 10.2664L6.40134 15.6543ZM7.84663 1.50963C7.84663 1.04205 7.46758 0.662999 7 0.662999C6.53242 0.662999 6.15337 1.04205 6.15337 1.50963H7.84663ZM7.84663 15.0557L7.84663 1.50963H6.15337L6.15337 15.0557H7.84663Z" fill="#0080FF"/>
</svg>
